src/32/devices/drive-removable-media.svg

<?xml version="1.0" encoding="UTF-8" standalone="no"?>
<svg
   xmlns:dc="http://purl.org/dc/elements/1.1/"
   xmlns:cc="http://creativecommons.org/ns#"
   xmlns:rdf="http://www.w3.org/1999/02/22-rdf-syntax-ns#"
   xmlns:svg="http://www.w3.org/2000/svg"
   xmlns="http://www.w3.org/2000/svg"
   xmlns:sodipodi="http://sodipodi.sourceforge.net/DTD/sodipodi-0.dtd"
   xmlns:inkscape="http://www.inkscape.org/namespaces/inkscape"
   width="64"
   height="64"
   version="1"
   id="svg10"
   sodipodi:docname="drive-removable-media.svg"
   inkscape:version="0.92.4 (5da689c313, 2019-01-14)">
  <metadata
     id="metadata16">
    <rdf:RDF>
      <cc:Work
         rdf:about="">
        <dc:format>image/svg+xml</dc:format>
        <dc:type
           rdf:resource="http://purl.org/dc/dcmitype/StillImage" />
      </cc:Work>
    </rdf:RDF>
  </metadata>
  <defs
     id="defs14" />
  <sodipodi:namedview
     pagecolor="#ffffff"
     bordercolor="#666666"
     borderopacity="1"
     objecttolerance="10"
     gridtolerance="10"
     guidetolerance="10"
     inkscape:pageopacity="0"
     inkscape:pageshadow="2"
     inkscape:window-width="1366"
     inkscape:window-height="708"
     id="namedview12"
     showgrid="true"
     inkscape:zoom="2.6074563"
     inkscape:cx="-43.680671"
     inkscape:cy="61.545234"
     inkscape:window-x="0"
     inkscape:window-y="30"
     inkscape:window-maximized="1"
     inkscape:current-layer="svg10"
     inkscape:snap-bbox="true"
     inkscape:bbox-nodes="true">
    <inkscape:grid
       type="xygrid"
       id="grid823" />
  </sodipodi:namedview>
  <g
     id="g880">
    <rect
       ry="0"
       rx="0"
       y="5.0000005"
       x="19.5"
       height="15"
       width="25"
       id="rect859"
       style="opacity:1;fill:#b7b7b7;fill-opacity:1;stroke:#2c3854;stroke-width:1;stroke-linecap:round;stroke-linejoin:miter;stroke-miterlimit:4;stroke-dasharray:none;stroke-opacity:0.54117647;paint-order:fill markers stroke" />
    <path
       id="path4161-8"
       d="M 16.929688 19 C 16.310695 22.932069 16.5 27.140544 16.5 30.5 C 16.5 38.946079 16.876377 45.745257 19.498047 50.378906 C 22.119717 55.012555 26.91666 57.5 32 57.5 C 37.08333 57.5 41.880283 55.012555 44.501953 50.378906 C 47.123623 45.745257 47.5 38.946078 47.5 30.5 C 47.5 27.140544 47.689305 22.932069 47.070312 19 L 16.929688 19 z "
       style="opacity:1;fill:#fafafa;fill-opacity:1;stroke:none;stroke-width:1;stroke-linecap:butt;stroke-linejoin:miter;stroke-miterlimit:4;stroke-dasharray:none;stroke-dashoffset:0;stroke-opacity:0.30196078" />
    <path
       id="path4161"
       d="M 16.419922 19 C 15.800599 22.982328 16 27.182193 16 30.5 C 16 47.5 21.49999 58 32 58 C 42.49999 58 48 47.5 48 30.5 C 48 27.182186 48.197455 22.982336 47.578125 19 L 16.419922 19 z "
       style="opacity:1;fill:none;fill-opacity:1;stroke:#2c3854;stroke-width:1;stroke-linecap:butt;stroke-linejoin:miter;stroke-miterlimit:4;stroke-dasharray:none;stroke-dashoffset:0;stroke-opacity:0.21568627" />
    <rect
       ry="0"
       rx="0"
       y="11"
       x="23"
       height="4"
       width="6"
       id="rect861"
       style="opacity:1;fill:#707680;fill-opacity:1;stroke:none;stroke-width:1;stroke-linecap:round;stroke-linejoin:miter;stroke-miterlimit:4;stroke-dasharray:none;stroke-opacity:0.78431373;paint-order:fill markers stroke" />
    <rect
       style="opacity:1;fill:#707680;fill-opacity:1;stroke:none;stroke-width:1;stroke-linecap:round;stroke-linejoin:miter;stroke-miterlimit:4;stroke-dasharray:none;stroke-opacity:0.78431373;paint-order:fill markers stroke"
       id="rect873"
       width="6"
       height="4"
       x="35"
       y="11"
       rx="0"
       ry="0" />
  </g>
</svg>

<svg xmlns="http://www.w3.org/2000/svg" width="64" height="64" version="1"><rect ry="0" rx="0" y="5" x="19.5" height="15" width="25" fill="#b7b7b7" stroke="#2c3854" stroke-linecap="round" stroke-opacity=".541" paint-order="fill markers stroke"/><path d="M16.93 19c-.62 3.932-.43 8.14-.43 11.5 0 8.446.376 15.245 2.998 19.879C22.12 55.013 26.917 57.5 32 57.5c5.083 0 9.88-2.487 12.502-7.121S47.5 38.946 47.5 30.5c0-3.36.19-7.568-.43-11.5H16.93z" fill="#fafafa"/><path d="M16.42 19c-.62 3.982-.42 8.182-.42 11.5 0 17 5.5 27.5 16 27.5s16-10.5 16-27.5c0-3.318.197-7.518-.422-11.5H16.42z" fill="none" stroke="#2c3854" stroke-opacity=".216"/><rect ry="0" rx="0" y="11" x="23" height="4" width="6" fill="#707680" paint-order="fill markers stroke"/><rect width="6" height="4" x="35" y="11" rx="0" ry="0" fill="#707680" paint-order="fill markers stroke"/></svg>
